X:1
T: The Bow-Legged Tailor
C:
R:Jig
Q:180
K:G
M:6/8
L:1/16
G2|G2A2G2 g2f2g2|e2d2c2 B4A2|G2A2G2 B2A2G2|F2A2A2 c2B2A2|G2A2G2 g2f2g2|a2f2d2 c2A2F2|D2E2G2 A2d2c2|B2G2G2 G4G2|
G2A2G2 g2f2g2|e2d2c2 B4A2|G2A2G2 B2A2G2|F2A2A2 c2B2A2|G2A2G2 g2f2g2|a2f2d2 c2A2F2|D2E2G2 A2d2c2|B2G2G2 G4d2|
d2B2G2 d2B2G2|e2c2A2 d2B2G2|g2b2a2 g2B2d2|c2A2A2 A2B2c2|d2B2g2 d2B2G2|E2F2G2 A2F2D2|G2F2G2 A2d2c2|B2G2G2 G4d2|
d2B2G2 d2B2G2|e2c2A2 d2B2G2|g2b2a2 g2B2d2|c2A2A2 A2B2c2|d2B2g2 d2B2G2|E2F2G2 A2F2D2|G2F2G2 A2d2c2|B2G2G2 G4||
